icons/svg/computer-mac.svg

<svg width="24" height="24" viewBox="0 0 24 24" fill="none" xmlns="http://www.w3.org/2000/svg">
<path d="M2.75 6.25C2.75 4.317 4.317 2.75 6.25 2.75H17.75C19.683 2.75 21.25 4.317 21.25 6.25V14.2813C21.25 16.2142 19.683 17.7812 17.75 17.7812H6.25C4.317 17.7812 2.75 16.2142 2.75 14.2813V6.25Z" stroke="currentColor" stroke-width="1.5" stroke-linecap="round" stroke-linejoin="round"/>
<path d="M2.75 14H21.25" stroke="currentColor" stroke-width="1.5" stroke-linecap="round" stroke-linejoin="round"/>
<path d="M9.10938 17.7812V19.25C9.10938 20.3546 8.21395 21.25 7.10938 21.25H6.51" stroke="currentColor" stroke-width="1.5" stroke-linecap="round" stroke-linejoin="round"/>
<path d="M14.8906 17.7812V19.25C14.8906 20.3546 15.7861 21.25 16.8906 21.25H17.49" stroke="currentColor" stroke-width="1.5" stroke-linecap="round" stroke-linejoin="round"/>
<path d="M6.50781 21.25H17.4922" stroke="currentColor" stroke-width="1.5" stroke-linecap="round" stroke-linejoin="round"/>
</svg>

<svg xmlns="http://www.w3.org/2000/svg" width="24" height="24" fill="none" viewBox="0 0 24 24"><path stroke="currentColor" stroke-linecap="round" stroke-linejoin="round" stroke-width="1.5" d="M2.75 6.25a3.5 3.5 0 0 1 3.5-3.5h11.5a3.5 3.5 0 0 1 3.5 3.5v8.031a3.5 3.5 0 0 1-3.5 3.5H6.25a3.5 3.5 0 0 1-3.5-3.5zm0 7.75h18.5M9.11 17.781v1.469a2 2 0 0 1-2 2h-.6m8.38-3.469v1.469a2 2 0 0 0 2 2h.6m-10.982 0h10.984"/></svg>
